images_breeze_svg/cmd/32/objectposition.svg

<svg viewBox="0 0 32 32" xmlns="http://www.w3.org/2000/svg"><path d="m4 5v1h24v-1zm4.5 3-1 1-4 4 .7070313.707031 3.7929687-3.7929685v18.0859375h1v-18.0859375l3.792969 3.7929685.707031-.707031-4.0000005-4zm6.5 4v1h13v-1zm0 8v1h13v-1z" fill="#4d4d4d"/><path d="m18.999997 26c-.552285 0-1 .4477-1 1s.447715 1 1 1 1-.4477 1-1-.447715-1-1-1zm4 0c-.552285 0-1 .4477-1 1s.447715 1 1 1 1-.4477 1-1-.447715-1-1-1zm4 0c-.552285 0-1 .4477-1 1s.447715 1 1 1 1-.4477 1-1-.447715-1-1-1z" fill="#f47750"/></svg>

<?xml version="1.0" encoding="UTF-8" standalone="no"?>
<svg
   xmlns:dc="http://purl.org/dc/elements/1.1/"
   xmlns:cc="http://creativecommons.org/ns#"
   xmlns:rdf="http://www.w3.org/1999/02/22-rdf-syntax-ns#"
   xmlns:svg="http://www.w3.org/2000/svg"
   xmlns="http://www.w3.org/2000/svg"
   xmlns:sodipodi="http://sodipodi.sourceforge.net/DTD/sodipodi-0.dtd"
   xmlns:inkscape="http://www.inkscape.org/namespaces/inkscape"
   viewBox="0 0 32 32"
   version="1.1"
   id="svg6"
   sodipodi:docname="objectposition.svg"
   inkscape:version="0.92.4 (unknown)"
   inkscape:export-filename="/home/rizmut/Dokumen/Rizmut/Github/tmp/breeze/cmd/32/objectposition.png"
   inkscape:export-xdpi="96"
   inkscape:export-ydpi="96">
  <metadata
     id="metadata12">
    <rdf:RDF>
      <cc:Work
         rdf:about="">
        <dc:format>image/svg+xml</dc:format>
        <dc:type
           rdf:resource="http://purl.org/dc/dcmitype/StillImage" />
      </cc:Work>
    </rdf:RDF>
  </metadata>
  <defs
     id="defs10" />
  <sodipodi:namedview
     pagecolor="#ffffff"
     bordercolor="#666666"
     borderopacity="1"
     objecttolerance="10"
     gridtolerance="10"
     guidetolerance="10"
     inkscape:pageopacity="0"
     inkscape:pageshadow="2"
     inkscape:window-width="1360"
     inkscape:window-height="714"
     id="namedview8"
     showgrid="true"
     inkscape:zoom="10.429825"
     inkscape:cx="3.6021059"
     inkscape:cy="20.215081"
     inkscape:window-x="0"
     inkscape:window-y="28"
     inkscape:window-maximized="1"
     inkscape:current-layer="svg6">
    <inkscape:grid
       type="xygrid"
       id="grid822" />
  </sodipodi:namedview>
  <path
     d="M 4,5 V 6 H 28 V 5 Z m 4.5,3 -1,1 -4,4 0.7070313,0.707031 L 8,9.9140625 V 28 H 9 V 9.9140625 L 12.792969,13.707031 13.5,13 9.4999995,9 Z m 6.5,4 v 1 h 13 v -1 z m 0,8 v 1 h 13 v -1 z"
     id="path2"
     inkscape:connector-curvature="0"
     style="fill:#4d4d4d"
     sodipodi:nodetypes="ccccccccccccccccccccccccccc" />
  <path
     d="m18.999997 26c-.552285 0-1 .4477-1 1s.447715 1 1 1 1-.4477 1-1-.447715-1-1-1zm4 0c-.552285 0-1 .4477-1 1s.447715 1 1 1 1-.4477 1-1-.447715-1-1-1zm4 0c-.552285 0-1 .4477-1 1s.447715 1 1 1 1-.4477 1-1-.447715-1-1-1z"
     fill="#f47750"
     id="path4" />
</svg>
